src/assets/outline/ToggleOn.svg

<?xml version="1.0" encoding="UTF-8"?>
<svg width="24" height="24" viewBox="0 0 24 24" xmlns="http://www.w3.org/2000/svg">
 <path d="m15.7 16.75h-2.4c-2.42 0-3.55-1.13-3.55-3.55v-2.4c0-2.42 1.13-3.55 3.55-3.55h2.4c2.42 0 3.55 1.13 3.55 3.55v2.4c0 2.42-1.13 3.55-3.55 3.55zm-2.4-8c-1.59 0-2.05 0.46-2.05 2.05v2.4c0 1.59 0.46 2.05 2.05 2.05h2.4c1.59 0 2.05-0.46 2.05-2.05v-2.4c0-1.59-0.46-2.05-2.05-2.05h-2.4z"/>
 <path d="m17 20.75h-10c-4.41 0-5.75-1.34-5.75-5.75v-6c0-4.41 1.34-5.75 5.75-5.75h10c4.41 0 5.75 1.34 5.75 5.75v6c0 4.41-1.34 5.75-5.75 5.75zm-10-16c-3.58 0-4.25 0.68-4.25 4.25v6c0 3.57 0.67 4.25 4.25 4.25h10c3.58 0 4.25-0.68 4.25-4.25v-6c0-3.57-0.67-4.25-4.25-4.25h-10z"/>
</svg>

<svg width="24" height="24" viewBox="0 0 24 24"  xmlns="http://www.w3.org/2000/svg">
<path d="M15.7 16.75H13.3C10.88 16.75 9.75 15.62 9.75 13.2V10.8C9.75 8.38 10.88 7.25 13.3 7.25H15.7C18.12 7.25 19.25 8.38 19.25 10.8V13.2C19.25 15.62 18.12 16.75 15.7 16.75ZM13.3 8.75C11.71 8.75 11.25 9.21 11.25 10.8V13.2C11.25 14.79 11.71 15.25 13.3 15.25H15.7C17.29 15.25 17.75 14.79 17.75 13.2V10.8C17.75 9.21 17.29 8.75 15.7 8.75H13.3Z" />
<path d="M17 20.75H7C2.59 20.75 1.25 19.41 1.25 15V9C1.25 4.59 2.59 3.25 7 3.25H17C21.41 3.25 22.75 4.59 22.75 9V15C22.75 19.41 21.41 20.75 17 20.75ZM7 4.75C3.42 4.75 2.75 5.43 2.75 9V15C2.75 18.57 3.42 19.25 7 19.25H17C20.58 19.25 21.25 18.57 21.25 15V9C21.25 5.43 20.58 4.75 17 4.75H7Z" />
</svg>
